X: 19
T: Abi gezint
M: 2/4
L: 1/8
K: Dm
|: A, \
| "Dm"DF A>A \
| "Gm"cB "A7"A<G \
| "Dm"DE F>G \
| "Gm"AG "A7"F<E \
| "Cm"A,D F2 \
| "E7"FE "A7"D^C \
|1"Dm"D2 c2 \
| "A7"{=B}A3 \
:|2 "Dm"D4- \
| DD EF 
|"Gm"G4 \
| zE/G/ F/E/D \
| "Dm"A4 \
| zD EF \
| "Gm"G>D G>D \
| G>A "C7"c/B/A/G/ \
| "F"A2 "Gm"G2 \
| "E7"F2 "A7"E>A, \
|"Dm"DF A>A \
| "Gm"cB "A7"A<G 
| "Dm"DE F>G \
| "Gm"AG "A7"F<E \
| "Cm"A,D F2 \
| "E7"FE "A7"D^C \
| "Dm"D4- \
| "^fine"D3 z \
|:"Dm"d/d/d/d/ "D7"Ac \
| "Gm"B/B/B/B/ EB \
| "A7"A/A/A/A/ EF 
| "Dm"D3 D \
|1"A7"EF GE \
| "Dm"FG A>A \
| "E7"^GA =B^c \
| "A7"A4 \
:|2"A"EE "B7"^FF \
| "E7"^GG "A"AA \
| "Bm"=BB "E7"^cc \
| "A7"A3 "^D.C."z|]



